packages/web-icons/svgs/ios.svg

<svg viewBox="0 0 42 48" xmlns="http://www.w3.org/2000/svg" class="ridi_icon"><path d="M30.1 0C24.3 1.1 20 5.1 20.5 11.5c6.4-.5 9.9-5.2 9.6-11.5zm10.1 16.3c-2.2-2.9-4.5-4.8-8.4-5-3.9-.2-5.7 1.6-8.4 2-5.4.7-7-2.5-11.8-2-1.2 0-2.8.6-3.7 1.1-6.4 3.1-8.8 11.7-6.7 19.9C2.5 37.8 7.7 48 13.8 48c2.2 0 4-1.6 6.5-2 4.6-.6 7.1 2.1 10.1 2 2.5-.1 5.1-2.5 6.5-4.2 2-2.4 3.4-5.5 4.8-8.4-8-2.3-9.1-16.5-1.5-19.1z"/></svg>

<?xml version="1.0" encoding="UTF-8"?>
<svg width="42px" height="48px" viewBox="0 0 42 48" version="1.1" xmlns="http://www.w3.org/2000/svg">
  <!-- Generator: Sketch 41.2 (35397) - http://www.bohemiancoding.com/sketch -->
  <title>ios</title>
  <desc>Created with Sketch.</desc>
  <defs></defs>
  <g id="Page-1" stroke="none" stroke-width="1" fill="none" fill-rule="evenodd">
    <g id="ios" fill="#000000">
      <g id="레이어_1">
        <path d="M30.1,0 C24.3,1.1 20,5.1 20.5,11.5 C26.9,11 30.4,6.3 30.1,0 Z M40.2,16.3 C38,13.4 35.7,11.5 31.8,11.3 C27.9,11.1 26.1,12.9 23.4,13.3 C18,14 16.4,10.8 11.6,11.3 C10.4,11.3 8.8,11.9 7.9,12.4 C1.5,15.5 -0.9,24.1 1.2,32.3 C2.5,37.8 7.7,48 13.8,48 C16,48 17.8,46.4 20.3,46 C24.9,45.4 27.4,48.1 30.4,48 C32.9,47.9 35.5,45.5 36.9,43.8 C38.9,41.4 40.3,38.3 41.7,35.4 C33.7,33.1 32.6,18.9 40.2,16.3 L40.2,16.3 Z" id="Shape"></path>
      </g>
    </g>
  </g>
</svg>
